inst/assets/img/icons/common/github.svg

<?xml version="1.0" encoding="UTF-8"?>
<svg width="36px" height="36px" viewBox="0 0 36 36" version="1.1" xmlns="http://www.w3.org/2000/svg" xmlns:xlink="http://www.w3.org/1999/xlink">
    <!-- Generator: Sketch 43.2 (39069) - http://www.bohemiancoding.com/sketch -->
    <title>UI/icons/dark/github</title>
    <desc>Created with Sketch.</desc>
    <defs/>
    <g id="Symbols" stroke="none" stroke-width="1" fill="none" fill-rule="evenodd">
        <g id="UI/icons/dark/github" fill="#182359">
            <path d="M17.9985267,2 C9.16436969,2 2,9.16338746 2,18.0004911 C2,25.0695847 6.58405721,31.0660855 12.9420179,33.1818042 C13.7425335,33.3291384 14.0342552,32.8350778 14.0342552,32.4107554 C14.0342552,32.0306332 14.020504,31.0248319 14.0126462,29.6899843 C9.56217195,30.6564965 8.62316216,27.5447988 8.62316216,27.5447988 C7.89533135,25.696246 6.84631204,25.2041499 6.84631204,25.2041499 C5.3935971,24.2120998 6.95632156,24.2317444 6.95632156,24.2317444 C8.56226404,24.3447006 9.40697996,25.8809049 9.40697996,25.8809049 C10.834157,28.3256699 13.1522146,27.6194481 14.063722,27.2098591 C14.2090917,26.1765554 14.6226097,25.4713159 15.0793456,25.0715492 C11.5266276,24.6678535 7.7912152,23.294699 7.7912152,17.163633 C7.7912152,15.417232 8.41492986,13.9880905 9.43841125,12.8703152 C9.27339697,12.4656374 8.72433162,10.8380859 9.5955677,8.63593112 C9.5955677,8.63593112 10.9382731,8.20571534 13.9949661,10.2762516 C15.27088,9.9206851 16.6401056,9.7438841 18.0004911,9.7370085 C19.3598944,9.7438841 20.7281378,9.9206851 22.0060161,10.2762516 C25.0607447,8.20571534 26.4014856,8.63593112 26.4014856,8.63593112 C27.2746861,10.8380859 26.7256208,12.4656374 26.5615888,12.8703152 C27.5870346,13.9880905 28.2058381,15.417232 28.2058381,17.163633 C28.2058381,23.3104147 24.4645324,24.6629424 20.9010099,25.0587802 C21.4746309,25.5528408 21.9863716,26.5291752 21.9863716,28.0211793 C21.9863716,30.1604715 21.966727,31.8862457 21.966727,32.4107554 C21.966727,32.8390067 22.255502,33.3369962 23.0668222,33.180822 C29.4198717,31.0601921 34,25.0676202 34,18.0004911 C34,9.16338746 26.8356303,2 17.9985267,2" id="icons/icon-github"/>
        </g>
    </g>
</svg>

<svg width="36" height="36" viewBox="0 0 36 36" xmlns="http://www.w3.org/2000/svg"><path d="M17.999 2C9.164 2 2 9.163 2 18c0 7.07 4.584 13.066 10.942 15.182.8.147 1.092-.347 1.092-.771 0-.38-.013-1.386-.021-2.721-4.45.966-5.39-2.145-5.39-2.145-.728-1.849-1.777-2.34-1.777-2.34-1.452-.993.11-.973.11-.973 1.606.113 2.451 1.649 2.451 1.649 1.427 2.445 3.745 1.738 4.657 1.329.145-1.033.559-1.739 1.015-2.138-3.552-.404-7.288-1.777-7.288-7.908 0-1.747.624-3.176 1.647-4.294-.165-.404-.714-2.032.158-4.234 0 0 1.342-.43 4.399 1.64A15.325 15.325 0 0118 9.737a15.33 15.33 0 014.006.54c3.055-2.071 4.395-1.641 4.395-1.641.874 2.202.325 3.83.16 4.234 1.026 1.118 1.645 2.547 1.645 4.294 0 6.146-3.741 7.499-7.305 7.895.574.494 1.085 1.47 1.085 2.962 0 2.14-.02 3.865-.02 4.39 0 .428.29.926 1.1.77C29.42 31.06 34 25.068 34 18c0-8.838-7.164-16-16.001-16" fill="#182359" fill-rule="evenodd"/></svg>
